assets/images/platforms/windows.svg

<svg clip-rule="evenodd" fill-rule="evenodd" stroke-linejoin="round" stroke-miterlimit="2" viewBox="0 0 448 512" xmlns="http://www.w3.org/2000/svg"><path d="m0 93.7 183.6-25.3v177.4h-183.6zm0 324.6 183.6 25.3v-175.2h-183.6zm203.8 28 244.2 33.7v-211.6h-244.2zm0-380.6v180.1h244.2v-213.8z" fill-rule="nonzero"/></svg>

<svg clip-rule="evenodd" fill-rule="evenodd" stroke-linejoin="round" stroke-miterlimit="2" viewBox="0 0 448 512" xmlns="http://www.w3.org/2000/svg"><path d="m0 93.7 183.6-25.3v177.4H0zm0 324.6 183.6 25.3V268.4H0zm203.8 28L448 480V268.4H203.8zm0-380.6v180.1H448V32z" fill-rule="nonzero"/></svg>
